!!!!SEGMENT: pl-wnifc--13846--001-019_anonim--piesni-polskie-i-ruskie-ludu-galicyjskiego-19-wesolo-bracia-wesolo.krn
!!!cenid: 18xx:3241
!!!COM: Anonim
!!!COM-rismID: pe30004985
!!!CDT:
!!!CNT:
!!!GTL: Pieśni polskie i ruskie ludu galicyjskiego
!!!OTL: 19. Wesoło, bracia, wesoło!
!!!OMV: 019
!!!PDT: 1833
!!!AGN:
!!!YEC: Copyright 2022 Narodowy Instytut Fryderyka Chopina (https://polishscores.org)
!!!YEM: License CC-BY-4.0 (https://creativecommons.org/licenses/by/4.0)
!!!SMS-siglum: PL-Wnifc
!!!SMS-shelfmark: 13846
!!!SMS-shelfwork: 001-019 G
!!!SMS-variant:
!!!SMS-altvar:
!!!NIFC-rismSourceID: 1001036701
!!!NIFC-rismChildID: 1001036747
!!!NIFC-islandoraID: nifc:210326
!!!URL-pdf-islandora: https://repozytorium.nifc.pl/islandora/object/nifc%3A210326/datastream/PDF/view
!!!URL-scan:
!!!IIIF:
!!!ONB-nifc:
!!!OMD: Allegretto.
!!!AIN: 2 piano 1 vox
!!!key: G
**kern	**kern	**kern	**text
*part3	*part2	*part1	*
*staff3	*staff2	*staff1	*
*>A	*>A	*>A	*>A
*I"FORTEPIAN.	*I"FORTEPIAN.	*I"GŁOS.	*
*Ipiano	*Ipiano	*Ivox	*
*ICklav	*ICklav	*ICvox	*
*IGacmp	*IGacmp	*IGsolo	*
*clefF4	*clefG2	*clefG2	*
*k[f#]	*k[f#]	*k[f#]	*
*G:	*G:	*G:	*
*M6/8	*M6/8	*M6/8	*
!	!LO:TX:a:t=D.A.4.:rj	!	!
8r	8d/	8d/	We-
=1	=1	=1	=1
4.GG/	4g 4d 4B\	4g/	-so-
.	8g 8d 8B\	8g/	-ło
4.GG/	8gL 8d 8B\	8g/	bra-
.	8f# 8d 8A\	8f#/	-cia
.	8gJ 8d 8G\	8g/	we-
=2	=2	=2	=2
*^	*	*	*
(>4F#/	4.D\	4a 4d/	(<4a/	-so-
8A\)	.	8f# 8d/	8f#/)	.
4A 4F# 4D\	4ryy	8d/	8d/	-ło!
.	.	8r	8r	.
8r	8ryy	8d/	8d/	po-
*v	*v	*	*	*
!!LO:LB:g=original
=3	=3	=3	=3
4.c 4.D\	4a 4f#/	4a/	-chwyc-
.	8a 8f#/	8a/	-cie
!LO:N:vis=4	!	!	!
4.c 4.D\	8aL 8f#/	8a/	du-
.	8g 8e/	8g/	-że
.	8aJ 8f#/	8a/	pu-
=4	=4	=4	=4
*^	*^	*	*
4.B/	4.G\	4.b/	4.g\	4.b/	-ha-
4B/	4G\	4g 4d/	4ryy	4g/	-ry
8r	8ryy	8d 8B/	8ryy	8d/	dzban
=5	=5	=5	=5	=5	=5
4A 4D/	4D\	4cc/	4f#\	4cc\	peł-
8A 8D/	8D\	8cc/	8f#\	8cc\	-ny,
4D 4DD/	8ryy	8cc/L	8f#\L	8cc\L	u-
.	4ryy	8b 8g 8d/	8d\	8b\J	-siądź-
8C 8CC/	.	8aJ 8f#/	8a 8f# 8d\J	8a\	-cie
*v	*v	*	*	*	*
!!LO:PB:g=original
=6	=6	=6	=6	=6
4.BB 4.BBB/	4dd 4g/	(<4.g 4.d\	(>4dd\	w_ko-
.	8b/)	.	8b\)	.
4BB 4BBB/	4g 4d/	4d\	4g/	-ło,
8C 8CC/	8e 8G/	8ryy	8e/	mi-
=7	=7	=7	=7	=7
4D 4DD/	4d 4B/	4G\	4d/	-ło-
8D 8DD/	8d 8B/	8G\	8d/	-ści
!	!	!LO:S:s=1:note:problem=note-level slur	!	!
4D 4DD/	8d/	(<8.c 8.A\	8d/	pal-
.	8e/)	.	8e/	-cie
.	.	16ryy	.	.
8D 8DD/	8f#/	8ryy	8f#/	o-
*	*v	*v	*	*
=8	=8	=8	=8
4.D 4.DD/	(4.a 4.f# 4.d 4.c/	4.a/	-fia-
4D 4GG/	4g 4d 4B/)	4g/	-ry:
8r	8r	8r	.
!!LO:LB:g=original
=9!|:	=9!|:	=9!|:	=9!|:
*>B	*>B	*>B	*>B
*	*^	*	*
!	!LO:S:s=1:note:problem=note-level slur	!	!	!
8D 8DD/	(<8aL 8d/	4.d 4.c\	8a/	Mi-
(>8A\L	8f#/)	.	8f#/	.
8F#\J)	8d|</J	.	8d/	-łość,
!	!LO:S:s=1:note:problem=note-level slur	!	!	!
8D 8DD/	(<8aL 8d/	4.d 4.c\	8a/	spié-
(>8A\L	8f#/)	.	8f#/	-wa-
8F#\J)	8d|</J	.	8d/	-nie
=10	=10	=10	=10	=10
8GG/L	4g 4B/	4d\	(<4g/	wi-
8G/	.	.	.	.
8D/J	8b 8g 8d/	2ryy	8b/)	.
8BB/L	4dd 4g 4d\	.	4dd\	-no,
8D/	.	.	.	.
8GG/J	8b 8g 8d/	.	8d/	są
.	.	.	8qqb/	.
=11	=11	=11	=11	=11
!LO:TX:t=P:problem=mixed beam	!	!	!	!
8DD/L	8aL 8d/	4.d 4.c\	8a/	ży-
8A\	8f#/	.	8f#/	-cia
8F#\J	8d/J	.	8d/	ro-
!!LO:LB:g=original
4D\	8d/L	4c\	8d/	-sko-
.	8e/	.	8e/	-szą
8D\	8f# 8c/J	8c\	8f#/	je-
*	*v	*v	*	*
=12	=12	=12	=12
*>B1	*>B1	*>B1	*>B1
4.D [<4.GG/	4.a 4.f# 4.d 4.c/	4.a/	-dy-
4G 4GG/]	4.g 4.d 4.B/	4.g/	-ną;
8ryy	.	.	.
=13:|!	=13:|!	=13:|!	=13:|!
*>B2	*>B2	*>B2	*>B2
!LO:S:s=1:note:problem=note-level slur	!	!	!
(<4.D [<4.GG/	4.a 4.f# [<4.d (<4.c/	4.a/	-dy-
4G) 4GG/])	4g 4d] 4B/)	4g/	-ną.
==	==	==	==
*-	*-	*-	*-
!!!system-decoration: <s1>{(s2,s3)}
!!!RDF**kern: > = above
!!!RDF**kern: < = below
!!!RDF**kern: | = vertical stroke
!!!ENC: Anastazja Marusiak
!!!END: 2021-11-09
!!!ENC: Andrzej Kubiczek
!!!END: 2021-11-11
